X:20
T: Boring the Leather
T: Tolladh an Leathair
S: "Ceol Rince na hEireann" 1/06
Z: B.Black
L: 1/8
M: 6/8
R: jig
K: G
d|cAG A2G|FDE F2d|cAA BAG|Ade (3gfe d|
cAG (3ABA G|FDE F2G|Add fdd|1 ecA G2 :|2\
ecA G3||
Add fdd|cAB cAG|Add fdd|ecA G3|
Add fdd|cAG cde|fag ecA|AGF G3 :|
